X: 1
T: Angry Cat's Hello, The
M: 4/4
L: 1/8
R: reel
K: Dmin
=BG (3GGG  =BAcA | =BG (3GGG  AFDF |=BG (3GGG =BAcA | FDCD FDCD :|
DEFD EC (3CCC | DEFD ED A,2 | DEFD EC (3CCC | B,CDF  ECGE |
DEFD EC (3CCC | DEFD ED A,2 | DEFD EC (3CCC | B,CDF  EGAc ||
